X:1
T:Upham, CM
T:Upham, CM
T:Peter Christian Lutkin, 1905
T:Public Domain Courtesy of the Cyber Hymnal™
C:Peter Christian Lutkin, 1905
Z:Public Domain
Z:Courtesy of the Cyber Hymnal™
%%score ( 1 2 ) ( 3 4 )
L:1/8
Q:1/4=110
M:4/4
K:G
V:1 treble 
V:2 treble 
V:3 bass 
V:4 bass 
V:1
 [B,B]2 [B,G][B,E] [CE]2 [CD]2 | D2 (GB) [Ed]2 [Ec]2 | [GB]3 G [GB]2 A2 | [FA]8 | %4
 [FA]2 [=FA][FB] [Ec]2 G2 | G3 z A [^DB]2 [=DB]2 | [CB]2 (AE) [DG]2 [DF]2 | [DG]8 |] %8
V:2
 x8 | D2 D2 x4 | x3 G x (GE) x | x8 | x6 (ED) | C2 E2 x5 | x2 E2 x4 | x8 |] %8
V:3
 [G,,D,]2 [G,,D,][G,,E,] [A,,E,]2 [A,,F,]2 | [B,,F,]2 [B,,G,]2 [B,,^G,]2 [C,A,]2 | %2
 [D,D]3 [D,B,] [E,D]2 [A,,^C]2 | [D,D]8 | [D,D]2 [D,D]G, [C,G,]2 G,2 | %5
 [E,G,]2 [C,E,]2 [B,,F,]2 [E,^G,]2 x | [A,,E,]2 [A,,C]2 [D,B,]2 [D,A,]2 | [G,,G,B,]8 |] %8
V:4
 x8 | x8 | x8 | x8 | x3 G, x (G,=F,) x | x9 | x8 | x8 |] %8

